svg/fluentui-system-icons/ic_fluent_person_board_24_regular.svg

<svg width="24" height="24" viewBox="0 0 24 24" fill="none" xmlns="http://www.w3.org/2000/svg">
<path d="M15.25 12.25C15.25 11.2835 14.4665 10.5 13.5 10.5H7.5C6.5335 10.5 5.75 11.2835 5.75 12.25V12.75C5.75 13.8289 6.26536 14.4053 7.12603 14.9505C7.97516 15.4884 9.15255 15.75 10.5 15.75C12.0888 15.75 13.2749 15.4915 14.0693 14.9453C14.8824 14.3863 15.25 13.8012 15.25 12.75V12.25ZM7.25 12.25C7.25 12.1119 7.36193 12 7.5 12H13.5C13.6381 12 13.75 12.1119 13.75 12.25V12.75C13.75 13.0164 13.7154 13.0786 13.6479 13.2C13.6309 13.2305 13.6118 13.2649 13.5906 13.3072C13.4871 13.5142 13.3266 13.6846 13.0878 13.8227C12.5953 14.1074 11.779 14.25 10.5 14.25C9.48116 14.25 8.6537 14.1102 8.08981 13.8173C7.81113 13.6725 7.60366 13.4939 7.46536 13.2822C7.43323 13.2331 7.40434 13.1951 7.37894 13.1617C7.29577 13.0522 7.25 12.992 7.25 12.75V12.25ZM13 7.5C13 8.88071 11.8807 10 10.5 10C9.11929 10 8 8.88071 8 7.5C8 6.11929 9.11929 5 10.5 5C11.8807 5 13 6.11929 13 7.5ZM11.5 7.5C11.5 6.94772 11.0523 6.5 10.5 6.5C9.94772 6.5 9.5 6.94772 9.5 7.5C9.5 8.05228 9.94772 8.5 10.5 8.5C11.0523 8.5 11.5 8.05228 11.5 7.5ZM3 6.25C3 4.45507 4.45507 3 6.25 3H14.75C16.5449 3 18 4.45507 18 6.25V14.75C18 16.5449 16.5449 18 14.75 18H6.25C4.45507 18 3 16.5449 3 14.75V6.25ZM6.25 4.5C5.2835 4.5 4.5 5.2835 4.5 6.25V14.75C4.5 15.7165 5.2835 16.5 6.25 16.5H14.75C15.7165 16.5 16.5 15.7165 16.5 14.75V6.25C16.5 5.2835 15.7165 4.5 14.75 4.5H6.25ZM8.74999 20.5C7.59938 20.5 6.58843 19.902 6.01089 19H15.25C17.3211 19 19 17.321 19 15.25V6.01086C19.9021 6.5884 20.5 7.59935 20.5 8.74996V15.25C20.5 18.1494 18.1495 20.5 15.25 20.5H8.74999Z" fill="#212121"/>
</svg>

<svg xmlns="http://www.w3.org/2000/svg" width="24" height="24"><path d="M15.25 12.25a1.75 1.75 0 0 0-1.75-1.75h-6a1.75 1.75 0 0 0-1.75 1.75v.5c0 1.079.515 1.655 1.376 2.2.85.538 2.027.8 3.374.8 1.589 0 2.775-.258 3.57-.805.812-.559 1.18-1.144 1.18-2.195v-.5Zm-8 0A.25.25 0 0 1 7.5 12h6a.25.25 0 0 1 .25.25v.5c0 .266-.035.329-.102.45-.017.03-.036.065-.057.107a1.217 1.217 0 0 1-.503.516c-.493.284-1.309.427-2.588.427-1.019 0-1.846-.14-2.41-.433a1.607 1.607 0 0 1-.625-.535 1.978 1.978 0 0 0-.086-.12c-.083-.11-.129-.17-.129-.412v-.5ZM13 7.5a2.5 2.5 0 1 1-5 0 2.5 2.5 0 0 1 5 0Zm-1.5 0a1 1 0 1 0-2 0 1 1 0 0 0 2 0ZM3 6.25A3.25 3.25 0 0 1 6.25 3h8.5A3.25 3.25 0 0 1 18 6.25v8.5A3.25 3.25 0 0 1 14.75 18h-8.5A3.25 3.25 0 0 1 3 14.75v-8.5ZM6.25 4.5A1.75 1.75 0 0 0 4.5 6.25v8.5c0 .966.784 1.75 1.75 1.75h8.5a1.75 1.75 0 0 0 1.75-1.75v-8.5a1.75 1.75 0 0 0-1.75-1.75h-8.5Zm2.5 16A3.248 3.248 0 0 1 6.01 19h9.24A3.75 3.75 0 0 0 19 15.25V6.01a3.247 3.247 0 0 1 1.5 2.74v6.5c0 2.9-2.35 5.25-5.25 5.25h-6.5Z"/></svg>
